static/images/mobile/copyright/wikipedia-wordmark-io.svg

<?xml version="1.0" encoding="UTF-8"?>
<svg width="120px" height="19px" viewBox="0 0 120 19" version="1.1" xmlns="http://www.w3.org/2000/svg" xmlns:xlink="http://www.w3.org/1999/xlink">
    <title>io-wordmark</title>
    <g id="Page-1" stroke="none" stroke-width="1" fill="none" fill-rule="evenodd">
        <path d="M26.1987874,0.370310041 C26.3527414,0.53337975 26.3527414,1.10868158 26.1987874,1.27276415 C24.5083318,1.4915409 24.2146038,2.53579476 23.6818419,3.81503105 L17.6199027,17.7590105 C17.4406273,18.1692169 17.2866733,18.3879937 17.0061123,18.3879937 C16.7498599,18.3879937 16.5523531,18.1661784 16.4166305,17.7590105 L12.9719095,9.82227607 L9.19497194,17.7590105 C9.04203079,18.1692169 8.86174254,18.3879937 8.58016875,18.3879937 C8.32492921,18.3879937 8.14464096,18.1692169 7.9916998,17.7590105 L2.42099543,3.76134972 C1.64008376,1.81970603 1.58842814,1.41051247 0.128903596,1.273777 C-0.0250504151,1.10969444 -0.0503717986,0.535405461 0.103582213,0.371322896 C1.30685436,0.397657135 1.74238215,0.426017084 2.7663791,0.426017084 C3.76505447,0.426017084 4.40517904,0.39866999 5.60946404,0.371322896 C5.76341805,0.534392606 5.76341805,1.10969444 5.60946404,1.273777 C3.99598549,1.46419381 3.92711132,1.89668304 4.57027446,3.46053168 L9.25878183,14.8612314 L9.37627305,14.8612314 L12.2365765,8.64938959 L10.0781818,3.76134972 C9.22029333,1.81970603 9.01569655,1.43785957 7.91370994,1.273777 C7.76076878,1.10969444 7.73443454,0.535405461 7.88838856,0.371322896 C8.70778852,0.397657135 9.14331632,0.426017084 10.1673131,0.426017084 C11.1659884,0.426017084 11.5761948,0.39866999 12.4978932,0.371322896 C12.6518472,0.534392606 12.6518472,1.10969444 12.4978932,1.273777 C11.4222408,1.43785957 11.5245392,1.90174731 12.226448,3.46053168 L13.48644,6.22258819 L13.598867,6.34514369 L14.9560931,3.62461425 C15.7471331,2.03949564 15.8524701,1.43785957 14.7514963,1.273777 C14.5975423,1.10766873 14.5975423,0.53337975 14.7514963,0.370310041 C15.4151192,0.388744008 15.8524296,0.408170573 16.2569346,0.418167455 L16.6001326,0.424183816 C16.6574976,0.42472063 16.7153216,0.425004229 16.7741684,0.425004229 C17.3636503,0.425004229 18.0037748,0.397657135 18.6438994,0.370310041 C18.7968406,0.53337975 18.7968406,1.10868158 18.6438994,1.27276415 C17.3119946,1.4915409 16.7559371,2.53275619 16.125941,3.81503105 L14.2541844,7.61830285 L17.5297585,14.8602185 L17.6472498,14.8602185 L22.5109811,3.62360139 C23.1176814,2.14381974 23.0741287,1.40848676 21.4100073,1.27276415 C21.2560533,1.10868158 21.2560533,0.534392606 21.4100073,0.370310041 C22.6132795,0.39664428 23.3557024,0.425004229 23.9451843,0.425004229 C24.5346661,0.425004229 25.1747906,0.397657135 26.1987874,0.370310041 Z M31.3916967,5.42749675 C31.5456507,5.59157932 31.5456507,6.16586829 31.3916967,6.32995086 C29.8298738,6.46668633 29.5483,6.54872761 29.5483,8.81752357 L29.5483,14.7234831 C29.5472871,16.992279 29.8288609,17.1026802 31.3906839,17.2110558 C31.5446379,17.3751383 31.5446379,17.9494273 31.3906839,18.1135099 C30.2897101,18.0871756 29.6495855,18.0588157 28.5486118,18.0588157 C27.4213038,18.0588157 26.7558578,18.0861628 25.6802054,18.1135099 C25.5272643,17.9494273 25.5272643,17.3751383 25.6802054,17.2110558 C27.2420284,17.0743203 27.524615,16.992279 27.524615,14.7234831 L27.524615,8.81752357 C27.524615,6.54872761 27.2430412,6.43933923 25.6802054,6.32995086 C25.5272643,6.16586829 25.5272643,5.59157932 25.6802054,5.42749675 C26.7811792,5.45484384 27.4213038,5.48219094 28.5232904,5.48219094 C29.6495855,5.48219094 30.3160443,5.4558567 31.3916967,5.42749675 Z M33.8225495,6.32995086 C33.6696084,6.16586829 33.6696084,5.59157932 33.8225495,5.42749675 C34.8982019,5.45484384 35.5636479,5.48219094 36.6909558,5.48219094 C37.6389884,5.48219094 38.048182,5.4558567 39.1491558,5.42749675 C39.3020969,5.59157932 39.3020969,6.16586829 39.1491558,6.32995086 C37.9195494,6.46668633 37.6896312,6.54872761 37.6896312,8.81752357 L37.6896312,11.2504021 C38.5343526,11.2504021 39.2848784,10.8189257 40.3787621,9.50018807 C42.3507915,7.12200373 42.6070439,6.41097929 41.3267947,6.328938 C41.1728407,6.16485544 41.1728407,5.59056646 41.3267947,5.4264839 C42.4277685,5.45383099 43.4011225,5.48117808 44.1435454,5.48117808 C44.8089914,5.48117808 45.2445192,5.45484384 45.9362994,5.4264839 C46.0892405,5.59056646 46.0892405,6.16485544 45.9362994,6.328938 C44.9123026,6.38363219 43.9723729,6.52239337 43.1955128,7.47751596 L40.9935653,10.1838654 C40.5580375,10.6761131 40.4040835,10.9769312 40.4040835,11.1957079 C40.4040835,11.3597905 40.5063819,11.4965259 40.6350145,11.6606085 L44.4251192,16.41799 C44.7603743,16.8332607 45.3731518,17.1280016 46.0639192,17.2100429 C46.2168603,17.3741255 46.2168603,17.9210674 46.0639192,18.0851499 C46.0639192,18.0851499 44.8089914,18.0578028 44.0918898,18.0578028 C43.425431,18.0578028 42.7853064,18.0851499 42.5037326,18.112497 L42.5037326,17.7296377 C42.5037326,17.3741255 42.4784113,17.0743203 42.1198605,16.6367668 L39.2777884,12.8628678 C38.8939162,12.3159259 38.2527788,12.1791904 37.6896312,12.1791904 L37.6896312,14.7224702 C37.6896312,16.9912662 37.9205622,17.0733074 39.1491558,17.2100429 C39.3020969,17.3741255 39.3020969,17.9484145 39.1491558,18.112497 C38.048182,18.0861628 37.6379756,18.0578028 36.6909558,18.0578028 C35.5636479,18.0578028 34.8982019,18.0851499 33.8225495,18.112497 C33.6696084,17.9484145 33.6696084,17.3741255 33.8225495,17.2100429 C35.3843725,17.0733074 35.6659462,16.9912662 35.6659462,14.7224702 L35.6659462,8.81651072 C35.6659462,6.54771476 35.3843725,6.46567347 33.8225495,6.32995086 L33.8225495,6.32995086 Z M51.8736574,14.7234831 C51.8736574,16.992279 52.1552312,17.1026802 53.7170541,17.2110558 C53.8710081,17.3751383 53.8710081,17.9494273 53.7170541,18.1135099 C52.6160803,18.0871756 51.9759558,18.0588157 50.874982,18.0588157 C49.747674,18.0588157 49.0822281,18.0861628 48.0065757,18.1135099 C47.8536345,17.9494273 47.8536345,17.3751383 48.0065757,17.2110558 C49.5683986,17.0743203 49.8499724,16.992279 49.8499724,14.7234831 L49.8499724,8.81752357 C49.8499724,6.54872761 49.5683986,6.43933923 48.0065757,6.32995086 C47.8536345,6.16586829 47.8536345,5.59157932 48.0065757,5.42749675 C49.1075495,5.45484384 49.747674,5.48219094 50.8496606,5.48219094 C51.9759558,5.48219094 52.6424146,5.4558567 53.718067,5.42749675 C53.872021,5.59157932 53.872021,6.16586829 53.718067,6.32995086 C52.156244,6.46668633 51.8746702,6.54872761 51.8746702,8.81752357 L51.8746702,14.7234831 L51.8736574,14.7234831 Z M61.9363752,17.2110558 C62.0893163,17.3751383 62.0893163,17.9494273 61.9363752,18.1135099 C60.8343886,18.0871756 60.194264,18.0588157 59.0932902,18.0588157 C57.9669951,18.0588157 57.3005363,18.0861628 56.2248839,18.1135099 C56.0709299,17.9494273 56.0709299,17.3751383 56.2248839,17.2110558 C57.7867069,17.0743203 58.0682806,16.992279 58.0682806,14.7234831 L58.0682806,8.81752357 C58.0682806,6.54872761 57.7867069,6.43933923 56.2248839,6.32995086 C56.0709299,6.16586829 56.0709299,5.59157932 56.2248839,5.42749675 C57.3258577,5.45484384 57.9659823,5.48219094 59.066956,5.48219094 C59.7587362,5.48219094 60.8343886,5.42749675 61.7814083,5.42749675 C65.417559,5.42749675 66.187329,7.34179334 66.187329,8.76282938 C66.187329,10.403655 65.1369981,13.0279632 61.7044313,13.0279632 C61.0643067,13.0279632 60.5528148,12.9195877 60.0919656,12.6997981 L60.0919656,14.7234831 C60.0919656,16.992279 60.3735394,17.1016674 61.9363752,17.2110558 Z M60.0919656,11.8246911 C60.6034576,12.0434678 61.2435821,12.1255091 61.7560869,12.1255091 C63.2936013,12.1255091 63.9590473,11.062011 63.9590473,9.09099451 C63.9590473,7.17365936 63.1386345,6.328938 61.6284672,6.328938 C60.3988608,6.328938 60.0919656,6.68445023 60.0919656,7.55955724 L60.0919656,11.8246911 Z M71.9970673,11.9067324 L71.9970673,16.0077836 C71.9970673,16.5273784 72.3556181,17.2110558 72.8164672,17.2110558 L74.9434635,17.2110558 C76.5559292,17.2110558 77.299365,15.8437011 77.7085585,14.2312354 C77.9891195,14.1491941 78.1947291,14.2049011 78.4246473,14.3406237 C78.2453719,15.4892017 77.9637981,16.992279 77.6569029,18.1135099 C77.6569029,18.1135099 75.9664473,18.0588157 74.9424506,18.0588157 L70.997379,18.0588157 C70.997379,18.0588157 69.2046251,18.0861628 68.1289727,18.1135099 C67.9760316,17.9494273 67.9760316,17.3751383 68.1289727,17.2110558 C69.6918085,17.0743203 69.9723694,16.992279 69.9723694,14.7234831 L69.9723694,8.81752357 C69.9723694,6.54872761 69.6918085,6.43933923 68.1289727,6.32995086 C67.9760316,6.16586829 67.9760316,5.59157932 68.1289727,5.42749675 C69.2309593,5.45484384 70.9720577,5.48219094 70.9720577,5.48219094 L76.2733425,5.48219094 C76.7858473,5.48219094 76.9641099,5.42749675 77.3226606,5.37381542 C77.3743163,5.37381542 77.3996376,5.40014966 77.3996376,5.4558567 C77.4502804,5.6462735 77.7581884,7.77934685 77.8604868,8.70914805 C77.6558901,8.81752357 77.424959,8.87323062 77.1687066,8.84588352 C76.7078575,7.28811201 76.374628,6.38464505 74.7864709,6.38464505 L72.8144415,6.38464505 C72.328271,6.38464505 71.9950416,6.68546308 71.9950416,7.15036368 L71.9950416,11.0326382 L73.4545661,11.0326382 C75.2473201,11.006304 75.1693302,10.7318202 75.2209858,9.50120093 C75.3496184,9.36446546 75.8104676,9.36446546 75.9380874,9.50120093 C75.912766,10.1848783 75.8874446,10.677126 75.8874446,11.4428446 C75.8874446,12.2085632 75.9117532,12.6461168 75.9380874,13.4391825 C75.8104676,13.575918 75.3496184,13.575918 75.2209858,13.4391825 C75.1693302,12.42734 75.2726414,11.9077452 73.4545661,11.9077452 L71.9970673,11.9077452 L71.9970673,11.9067324 Z M86.8992079,5.42749675 C91.1754831,5.42749675 93.2751333,8.27159454 93.2751333,11.9067324 C93.2751333,16.691461 90.0998308,18.112497 87.2577587,18.112497 C85.2087523,18.112497 84.2860411,18.0578028 83.5193096,18.0578028 C82.3920016,18.0578028 81.7265557,18.0851499 80.6509033,18.112497 C80.4969493,17.9484145 80.4969493,17.3741255 80.6509033,17.2100429 C82.2137391,17.0733074 82.4943,16.9912662 82.4943,14.7224702 L82.4943,8.81651072 C82.4943,6.54771476 82.2137391,6.43832638 80.6509033,6.328938 C80.4969493,6.16485544 80.4969493,5.59056646 80.6509033,5.4264839 C81.751877,5.45383099 82.3920016,5.48117808 83.4939882,5.48117808 C83.9801588,5.48219094 86.2327491,5.42749675 86.8992079,5.42749675 L86.8992079,5.42749675 Z M86.6419426,17.2110558 C89.4586933,17.2110558 91.0478633,16.1992133 91.0478633,12.3726458 C91.0478633,9.52854802 90.4583815,6.32995086 86.1557721,6.32995086 C85.1570967,6.32995086 84.517985,6.49403342 84.517985,7.17771078 L84.517985,15.9804365 C84.517985,16.7461552 84.6962475,17.2110558 86.6419426,17.2110558 L86.6419426,17.2110558 Z M99.1881827,14.7234831 C99.1881827,16.992279 99.4687437,17.1026802 101.031579,17.2110558 C101.184521,17.3751383 101.184521,17.9494273 101.031579,18.1135099 C99.9295928,18.0871756 99.2894683,18.0588157 98.1884945,18.0588157 C97.0611865,18.0588157 96.3957406,18.0861628 95.3200882,18.1135099 C95.167147,17.9494273 95.167147,17.3751383 95.3200882,17.2110558 C96.882924,17.0743203 97.1634849,16.992279 97.1634849,14.7234831 L97.1634849,8.81752357 C97.1634849,6.54872761 96.882924,6.43933923 95.3200882,6.32995086 C95.167147,6.16586829 95.167147,5.59157932 95.3200882,5.42749675 C96.4220748,5.45484384 97.0611865,5.48219094 98.1631731,5.48219094 C99.2894683,5.48219094 99.9559271,5.4558567 101.031579,5.42749675 C101.184521,5.59157932 101.184521,6.16586829 101.031579,6.32995086 C99.4687437,6.46668633 99.1881827,6.54872761 99.1881827,8.81752357 L99.1881827,14.7234831 Z M110.893205,0.934723679 C110.376882,0.934723679 109.865015,1.03266679 109.357605,1.22848211 C108.859088,1.41544508 108.369473,1.72256308 107.888772,2.14984623 C107.408051,2.57715977 106.985204,3.09792947 106.620221,3.71215533 C106.264142,4.32641158 105.97482,5.09644498 105.752275,6.02223528 C105.529721,6.93916309 105.418448,7.94954706 105.418448,9.0533872 C105.418448,10.3263843 105.605391,11.497002 105.979276,12.5652504 C106.353162,13.6245958 106.847223,14.4969985 107.461469,15.1824483 C108.075705,15.8679083 108.770068,16.4020274 109.544548,16.7848159 C110.32792,17.1587013 111.133556,17.345644 111.961453,17.345644 C113.554908,17.345644 114.87241,16.6423881 115.913969,15.2358562 C116.955489,13.8204415 117.476278,11.9154024 117.476278,9.52074903 C117.476278,8.13203321 117.307122,6.89020166 116.968858,5.79523414 C116.630565,4.691394 116.163203,3.78783588 115.566783,3.08455978 C114.979236,2.38131406 114.284873,1.84719493 113.483704,1.48219225 C112.691408,1.11723008 111.827918,0.934723679 110.893205,0.934723679 M120,8.99997933 C120,11.7596151 119.216607,13.9940246 117.649862,15.703218 C116.083086,17.4124114 114.004464,18.2670081 111.413975,18.2670081 C109.838306,18.2670081 108.409532,17.9198317 107.127642,17.2254687 C105.845742,16.5222129 104.822008,15.5029259 104.056431,14.1676179 C103.290855,12.823407 102.908066,11.2744574 102.908066,9.52074903 C102.908066,7.74924479 103.259699,6.14243082 103.962965,4.70028687 C104.666221,3.24927031 105.654352,2.10535149 106.92735,1.26855067 C108.200337,0.422867104 109.638014,1.77635684e-15 111.240391,1.77635684e-15 C112.833846,1.77635684e-15 114.293776,0.369459242 115.620201,1.10830683 C116.955489,1.84719493 118.01928,2.91098676 118.811586,4.29969246 C119.603842,5.67952554 120,7.24628108 120,8.99997933" id="io-wordmark" fill="#000000" fill-rule="nonzero"></path>
    </g>
</svg>

<svg xmlns="http://www.w3.org/2000/svg" width="120" height="19"><path fill="#000" fill-rule="nonzero" d="M26.199.37c.154.163.154.739 0 .903-1.69.219-1.984 1.263-2.517 2.542L17.62 17.759c-.18.41-.333.629-.614.629-.256 0-.454-.222-.59-.629l-3.444-7.937-3.777 7.937c-.153.41-.333.629-.615.629-.255 0-.435-.219-.588-.629L2.42 3.761c-.78-1.941-.833-2.35-2.292-2.487C-.025 1.11-.051.535.104.37c1.203.027 1.638.055 2.662.055 1 0 1.64-.027 2.843-.055.154.163.154.739 0 .903-1.613.19-1.682.623-1.039 2.187l4.689 11.4h.117l2.86-6.212-2.158-4.888C9.22 1.82 9.016 1.438 7.914 1.274 7.76 1.11 7.734.535 7.888.37c.82.027 1.255.055 2.28.055.998 0 1.408-.027 2.33-.055.154.163.154.739 0 .903-1.076.164-.973.628-.272 2.187l1.26 2.762.113.122 1.357-2.72c.791-1.586.896-2.187-.205-2.351-.153-.166-.153-.74 0-.904.664.019 1.101.038 1.506.048l.343.006.174.001c.59 0 1.23-.027 1.87-.055.153.163.153.739 0 .903-1.332.219-1.888 1.26-2.518 2.542l-1.872 3.803 3.276 7.242h.117l4.864-11.236c.607-1.48.563-2.216-1.101-2.351-.154-.164-.154-.739 0-.903 1.203.027 1.946.055 2.535.055.59 0 1.23-.027 2.254-.055Zm5.193 5.057c.154.165.154.739 0 .903-1.562.137-1.844.219-1.844 2.488v5.905c0 2.27.28 2.38 1.843 2.488.154.164.154.738 0 .903-1.101-.027-1.741-.055-2.842-.055-1.128 0-1.793.027-2.869.055-.153-.165-.153-.739 0-.903 1.562-.137 1.845-.219 1.845-2.488V8.818c0-2.27-.282-2.379-1.845-2.488-.153-.164-.153-.738 0-.903 1.101.028 1.741.055 2.843.055 1.127 0 1.793-.026 2.869-.055Zm2.43.903c-.152-.164-.152-.738 0-.903 1.076.028 1.742.055 2.869.055.948 0 1.357-.026 2.458-.055.153.165.153.739 0 .903-1.23.137-1.46.219-1.46 2.488v2.432c.845 0 1.596-.431 2.69-1.75 1.972-2.378 2.228-3.089.948-3.171-.154-.164-.154-.738 0-.903 1.1.028 2.074.055 2.817.055.665 0 1.1-.026 1.792-.055.153.165.153.739 0 .903-1.024.055-1.964.193-2.74 1.149l-2.202 2.706c-.436.492-.59.793-.59 1.012 0 .164.102.3.231.465l3.79 4.757c.335.415.948.71 1.639.792.153.164.153.711 0 .875 0 0-1.255-.027-1.972-.027-.667 0-1.307.027-1.588.054v-.382c0-.356-.026-.656-.384-1.093l-2.842-3.774c-.384-.547-1.025-.684-1.588-.684v2.543c0 2.27.23 2.351 1.46 2.488.152.164.152.738 0 .902-1.102-.026-1.512-.054-2.459-.054-1.127 0-1.793.027-2.868.054-.153-.164-.153-.738 0-.902 1.561-.137 1.843-.219 1.843-2.488V8.817c0-2.27-.282-2.351-1.843-2.487Zm18.052 8.393c0 2.27.281 2.38 1.843 2.488.154.164.154.738 0 .903-1.1-.027-1.741-.055-2.842-.055-1.127 0-1.793.027-2.868.055-.153-.165-.153-.739 0-.903 1.561-.137 1.843-.219 1.843-2.488V8.818c0-2.27-.282-2.379-1.843-2.488-.153-.164-.153-.738 0-.903 1.1.028 1.74.055 2.843.055 1.126 0 1.792-.026 2.868-.055.154.165.154.739 0 .903-1.562.137-1.843.219-1.843 2.488v5.905h-.001Zm10.062 2.488c.153.164.153.738 0 .903-1.102-.027-1.742-.055-2.843-.055-1.126 0-1.792.027-2.868.055-.154-.165-.154-.739 0-.903 1.562-.137 1.843-.219 1.843-2.488V8.818c0-2.27-.281-2.379-1.843-2.488-.154-.164-.154-.738 0-.903 1.1.028 1.741.055 2.842.055.692 0 1.767-.055 2.714-.055 3.637 0 4.406 1.915 4.406 3.336 0 1.64-1.05 4.265-4.483 4.265-.64 0-1.151-.108-1.612-.328v2.023c0 2.27.282 2.379 1.844 2.488Zm-1.844-5.386c.511.218 1.152.3 1.664.3 1.538 0 2.203-1.063 2.203-3.034 0-1.917-.82-2.762-2.33-2.762-1.23 0-1.537.355-1.537 1.23v4.266Zm11.905.082v4.1c0 .52.359 1.204.82 1.204h2.126c1.613 0 2.356-1.367 2.766-2.98.28-.082.486-.026.716.11-.18 1.148-.461 2.651-.768 3.773 0 0-1.69-.055-2.715-.055h-3.945s-1.792.027-2.868.055c-.153-.165-.153-.739 0-.903 1.563-.137 1.843-.219 1.843-2.488V8.818c0-2.27-.28-2.379-1.843-2.488-.153-.164-.153-.738 0-.903 1.102.028 2.843.055 2.843.055h5.301c.513 0 .691-.055 1.05-.108.051 0 .077.026.077.082.05.19.358 2.323.46 3.253a1.184 1.184 0 0 1-.691.137c-.461-1.558-.794-2.461-2.383-2.461h-1.972c-.486 0-.819.3-.819.765v3.883h1.46c1.792-.027 1.714-.301 1.766-1.532.129-.137.59-.137.717 0-.025.684-.05 1.176-.05 1.942s.024 1.203.05 1.996c-.128.137-.588.137-.717 0-.052-1.012.052-1.531-1.766-1.531h-1.458v-.001ZM86.9 5.427c4.276 0 6.376 2.845 6.376 6.48 0 4.784-3.175 6.205-6.017 6.205-2.05 0-2.972-.054-3.739-.054-1.127 0-1.792.027-2.868.054-.154-.164-.154-.738 0-.902 1.563-.137 1.843-.219 1.843-2.488V8.817c0-2.27-.28-2.379-1.843-2.488-.154-.164-.154-.738 0-.903 1.1.028 1.741.055 2.843.055.486.001 2.739-.054 3.405-.054Zm-.257 11.784c2.817 0 4.406-1.012 4.406-4.838 0-2.844-.59-6.043-4.892-6.043-.999 0-1.638.164-1.638.848v8.802c0 .766.178 1.231 2.124 1.231Zm12.546-2.488c0 2.27.28 2.38 1.844 2.488.153.164.153.738 0 .903-1.102-.027-1.743-.055-2.844-.055-1.127 0-1.792.027-2.868.055-.153-.165-.153-.739 0-.903 1.563-.137 1.843-.219 1.843-2.488V8.818c0-2.27-.28-2.379-1.843-2.488-.153-.164-.153-.738 0-.903 1.102.028 1.741.055 2.843.055 1.126 0 1.793-.026 2.869-.055.153.165.153.739 0 .903-1.563.137-1.844.219-1.844 2.488v5.905ZM110.893.935c-.516 0-1.028.098-1.535.293-.499.187-.989.495-1.47.922-.48.427-.903.948-1.268 1.562-.356.614-.645 1.384-.868 2.31-.222.917-.334 1.928-.334 3.031 0 1.273.187 2.444.561 3.512.374 1.06.868 1.932 1.482 2.617a6.88 6.88 0 0 0 2.084 1.603c.783.374 1.589.56 2.416.56 1.594 0 2.911-.703 3.953-2.11 1.041-1.415 1.562-3.32 1.562-5.714 0-1.389-.169-2.63-.507-3.726-.338-1.104-.806-2.007-1.402-2.71a5.854 5.854 0 0 0-2.083-1.603 6.116 6.116 0 0 0-2.59-.547M120 9c0 2.76-.783 4.994-2.35 6.703-1.567 1.71-3.646 2.564-6.236 2.564-1.576 0-3.004-.347-4.286-1.042-1.282-.703-2.306-1.722-3.072-3.057-.765-1.345-1.148-2.894-1.148-4.647 0-1.772.352-3.379 1.055-4.82.703-1.452 1.691-2.596 2.964-3.432C108.2.423 109.638 0 111.24 0c1.594 0 3.054.37 4.38 1.108 1.335.74 2.4 1.803 3.192 3.192C119.604 5.68 120 7.246 120 9"/></svg>
